X: 28976
T: Napoleon's Charge
R: barndance
M: 4/4
K: Dmajor
(3ABc|:d2df edef|~d2df ecA2|~d2df efde|fA (3BAF A2 (3ABc|
d2df edef|~d2df ecA2|.d2 d2 (3cBA FB|A2D2 D4:|
dB|:A2{E}F2 {E}F2 {E}F2|DFED F3B|A2F2 EDEG|F2D2 D2 dB|
A2{E}F2 {E}F2 {E}F2|DFED F3B|A2F2 EDEG|F2D2 D4:|

